X: 36345
T: Sean Flanagan's
R: jig
M: 6/8
K: Amixolydian
A3 cAc|dcB BAF|G3 BGB|=cBA B=cd|
A3 cAc|dcB cde|gfe dBG|BAG A3:|
a3 faf|ecA Ace|g3 gfe|dBG BAG|
A3 gAf|edB BAG|BAG B=cd|BAG A3:|

